; generated by PrusaSlicer 2.3.0+win64 on 2021-01-19 at 21:00:43 UTC

; 

; external perimeters extrusion width = 0.56mm
; perimeters extrusion width = 0.56mm
; infill extrusion width = 0.56mm
; solid infill extrusion width = 0.56mm
; top infill extrusion width = 0.50mm
; support material extrusion width = 0.50mm

M73 P0 R102
M73 Q0 S104
M201 X1000 Y1000 Z1000 E5000 ; sets maximum accelerations, mm/sec^2
M203 X200 Y200 Z12 E120 ; sets maximum feedrates, mm/sec
M204 P1250 R1250 T1250 ; sets acceleration (P, T) and retract acceleration (R), mm/sec^2
M205 X8.00 Y8.00 Z0.40 E4.50 ; sets the jerk limits, mm/sec
M205 S0 T0 ; sets the minimum extruding and travel feed rate, mm/sec
M107
;TYPE:Custom
M862.3 P "MK3S" ; printer model check
M862.1 P0.5 ; nozzle diameter check
M115 U3.8.1 ; tell printer latest fw version
G90 ; use absolute coordinates
M83 ; extruder relative mode
M104 S220 ; set extruder temp
M140 S65 ; set bed temp
M190 S65 ; wait for bed temp
M109 S220 ; wait for extruder temp
G28 W ; home all without mesh bed level
G80 ; mesh bed leveling
G1 Y-3.0 F1000.0 ; go outside print area
G92 E0.0
G1 X60.0 E9.0 F1000.0 ; intro line
G1 X100.0 E12.5 F1000.0 ; intro line
G92 E0.0
M221 S95
G21 ; set units to millimeters
G90 ; use absolute coordinates
M83 ; use relative distances for extrusion
M900 K30 ; Filament gcode
;LAYER_CHANGE
;Z:0.2
;HEIGHT:0.2
;BEFORE_LAYER_CHANGE
G92 E0.0
;0.2


G1 E-0.60000 F2100.000
G1 Z1.000 F10800.000
;AFTER_LAYER_CHANGE
;0.2
G1 X123.728 Y46.921
G1 Z0.200
G1 E0.60000 F2100.000
M204 S1000
;TYPE:Skirt
;WIDTH:0.5625
G1 F1200.000
G1 X125.037 Y46.450 E0.05710
G1 X126.201 Y46.322 E0.04804
G1 X127.082 Y46.395 E0.03631
G1 X127.874 Y46.590 E0.03346
G1 X129.150 Y47.054 E0.05573
G1 X130.000 Y47.484 E0.03909
G1 X130.676 Y47.980 E0.03441
G1 X131.323 Y48.642 E0.03801
G1 X131.839 Y49.389 E0.03726
G1 X132.229 Y50.229 E0.03802
G1 X167.707 Y155.529 E4.56054
M73 Q0 S103
G1 X167.944 Y156.568 E0.04377
G1 X167.992 Y158.277 E0.07014
G1 X167.912 Y159.185 E0.03740
G1 X167.684 Y160.058 E0.03706
G1 X167.311 Y160.886 E0.03726
G1 X166.873 Y161.551 E0.03269
G1 X165.863 Y162.560 E0.05860
G1 X165.210 Y162.992 E0.03213
G1 X164.396 Y163.362 E0.03669
G1 X163.546 Y163.590 E0.03612
G1 X162.712 Y163.675 E0.03441
G1 X87.414 Y163.678 E3.09045
G1 X86.502 Y163.598 E0.03759
G1 X85.628 Y163.370 E0.03707
G1 X84.800 Y162.998 E0.03725
G1 X84.139 Y162.562 E0.03250
G1 X83.132 Y161.557 E0.05841
G1 X82.697 Y160.900 E0.03232
G1 X82.328 Y160.091 E0.03649
G1 X82.099 Y159.242 E0.03612
G1 X82.013 Y158.422 E0.03384
G1 X82.700 Y108.051 E2.06756
G1 X82.782 Y107.174 E0.03617
G1 X83.009 Y106.314 E0.03650
G1 X86.134 Y97.729 E0.37496
G1 X86.478 Y96.997 E0.03322
G1 X86.885 Y96.383 E0.03023
G1 X121.975 Y48.345 E2.44162
G1 X122.755 Y47.555 E0.04556
G1 X123.665 Y46.962 E0.04458
; printing object Stand Celular Curly id:0 copy 0
;WIPE_START
G1 F8640.000
G1 X125.037 Y46.450 E-0.33809
G1 X126.035 Y46.340 E-0.23191
;WIPE_END
G1 E-0.03000 F2100.000
G1 Z1.200 F10800.000
G1 X125.000 Y158.857
G1 Z0.200
G1 E0.60000 F2100.000
;TYPE:Perimeter
G1 F1200.000
G1 X87.472 Y158.857 E1.54027
G1 X87.225 Y158.818 E0.01028
G1 X87.046 Y158.714 E0.00849
G1 X86.972 Y158.641 E0.00426
G1 X86.869 Y158.462 E0.00849
G1 X86.833 Y158.258 E0.00849
G1 X86.880 Y158.012 E0.01028
G1 X101.705 Y117.280 E1.77905
G1 X101.832 Y116.830 E0.01921
G1 X101.894 Y116.334 E0.02052
G1 X101.891 Y115.926 E0.01673
G1 X101.823 Y115.432 E0.02046
G1 X101.680 Y114.946 E0.02081
G1 X101.467 Y114.489 E0.02068
G1 X101.186 Y114.067 E0.02081
G1 X100.852 Y113.697 E0.02046
G1 X100.542 Y113.433 E0.01673
G1 X100.122 Y113.162 E0.02052
G1 X99.695 Y112.969 E0.01921
G1 X87.955 Y108.696 E0.51277
G1 X87.736 Y108.574 E0.01028
G1 X87.603 Y108.416 E0.00849
G1 X87.559 Y108.322 E0.00426
G1 X87.524 Y108.118 E0.00849
G1 X87.571 Y107.872 E0.01028
G1 X90.619 Y99.497 E0.36580
G1 X90.741 Y99.278 E0.01028
G1 X90.899 Y99.145 E0.00849
G1 X91.094 Y99.075 E0.00849
G1 X91.300 Y99.075 E0.00849
G1 X91.443 Y99.113 E0.00606
G1 X92.434 Y99.487 E0.04350
G1 X92.593 Y99.620 E0.00849
G1 X92.696 Y99.799 E0.00849
G1 X92.723 Y99.899 E0.00426
G1 X92.723 Y100.106 E0.00849
G1 X92.685 Y100.249 E0.00606
G1 X91.319 Y104.001 E0.16390
G1 X91.193 Y104.448 E0.01904
G1 X91.138 Y104.859 E0.01703
G1 X91.141 Y105.444 E0.02400
G1 X91.203 Y105.855 E0.01706
G1 X91.345 Y106.336 E0.02058
G1 X91.557 Y106.790 E0.02056
G1 X91.783 Y107.136 E0.01699
G1 X92.166 Y107.579 E0.02400
G1 X92.483 Y107.849 E0.01710
G1 X92.903 Y108.120 E0.02052
G1 X93.329 Y108.313 E0.01921
G1 X100.447 Y110.903 E0.31087
G1 X100.898 Y111.030 E0.01921
G1 X101.394 Y111.092 E0.02052
G1 X101.801 Y111.089 E0.01673
G1 X102.295 Y111.021 E0.02046
G1 X102.781 Y110.878 E0.02081
G1 X103.238 Y110.665 E0.02068
G1 X103.660 Y110.384 E0.02081
G1 X104.036 Y110.044 E0.02080
G1 X104.350 Y109.661 E0.02034
G1 X104.567 Y109.316 E0.01673
G1 X104.758 Y108.893 E0.01904
G1 X125.619 Y51.578 E2.50336
M73 P0 R101
G1 X125.682 Y51.444 E0.00606
G1 X125.814 Y51.286 E0.00849
G1 X125.994 Y51.182 E0.00849
G1 X126.197 Y51.146 E0.00849
G1 X126.454 Y51.198 E0.01077
G1 X127.301 Y51.506 E0.03696
G1 X127.520 Y51.628 E0.01028
G1 X127.652 Y51.786 E0.00849
G1 X127.723 Y51.980 E0.00849
G1 X127.723 Y52.187 E0.00849
G1 X127.685 Y52.330 E0.00606
G1 X95.275 Y141.376 E3.88930
G1 X95.020 Y142.166 E0.03405
G1 X94.821 Y142.991 E0.03482
G1 X94.683 Y143.828 E0.03482
G1 X94.608 Y144.672 E0.03478
G1 X94.597 Y145.355 E0.02804
G1 X94.647 Y146.364 E0.04146
G1 X94.761 Y147.209 E0.03500
G1 X94.937 Y148.038 E0.03482
G1 X95.175 Y148.853 E0.03482
G1 X95.472 Y149.647 E0.03482
G1 X95.828 Y150.418 E0.03482
G1 X96.238 Y151.157 E0.03469
G1 X96.608 Y151.729 E0.02796
G1 X97.113 Y152.406 E0.03468
G1 X97.669 Y153.047 E0.03482
G1 X98.271 Y153.645 E0.03482
G1 X98.916 Y154.196 E0.03482
G1 X99.600 Y154.697 E0.03482
G1 X100.323 Y155.149 E0.03499
G1 X101.222 Y155.610 E0.04147
G1 X101.850 Y155.880 E0.02804
G1 X102.650 Y156.158 E0.03477
G1 X103.470 Y156.377 E0.03482
G1 X104.303 Y156.534 E0.03482
G1 X105.147 Y156.628 E0.03482
G1 X105.976 Y156.659 E0.03405
G1 X162.528 Y156.659 E2.32109
G1 X162.675 Y156.672 E0.00606
G1 X162.870 Y156.743 E0.00849
G1 X163.028 Y156.876 E0.00849
G1 X163.131 Y157.055 E0.00849
G1 X163.171 Y157.302 E0.01028
G1 X163.171 Y158.215 E0.03746
G1 X163.131 Y158.462 E0.01028
G1 X163.028 Y158.641 E0.00849
G1 X162.955 Y158.714 E0.00426
G1 X162.776 Y158.818 E0.00849
G1 X162.528 Y158.857 E0.01028
G1 X125.075 Y158.857 E1.53719
G1 X125.000 Y159.377 F10800.000
;TYPE:External perimeter
G1 F1200.000
G1 X87.449 Y159.377 E1.54120
G1 X87.234 Y159.358 E0.00886
G1 X87.046 Y159.308 E0.00799
G1 X86.870 Y159.226 E0.00799
G1 X86.710 Y159.114 E0.00799
G1 X86.573 Y158.976 E0.00799
G1 X86.461 Y158.817 E0.00799
G1 X86.379 Y158.640 E0.00799
G1 X86.328 Y158.452 E0.00799
G1 X86.311 Y158.258 E0.00799
G1 X86.328 Y158.064 E0.00799
G1 X86.384 Y157.856 E0.00886
G1 X101.211 Y117.121 E1.77919
G1 X101.321 Y116.727 E0.01682
G1 X101.374 Y116.303 E0.01750
G1 X101.372 Y115.964 E0.01394
G1 X101.314 Y115.542 E0.01748
G1 X101.192 Y115.130 E0.01761
G1 X101.012 Y114.744 E0.01748
G1 X100.775 Y114.387 E0.01761
G1 X100.489 Y114.071 E0.01748
G1 X100.231 Y113.851 E0.01394
G1 X99.872 Y113.619 E0.01750
G1 X99.499 Y113.451 E0.01682
G1 X87.756 Y109.177 E0.51290
G1 X87.560 Y109.085 E0.00886
G1 X87.401 Y108.974 E0.00799
G1 X87.263 Y108.836 E0.00799
G1 X87.152 Y108.677 E0.00799
G1 X87.069 Y108.500 E0.00799
G1 X87.019 Y108.312 E0.00799
G1 X87.002 Y108.118 E0.00799
G1 X87.019 Y107.924 E0.00799
G1 X87.075 Y107.716 E0.00886
G1 X90.139 Y99.298 E0.36766
G1 X90.230 Y99.102 E0.00886
G1 X90.341 Y98.943 E0.00799
G1 X90.479 Y98.805 E0.00799
G1 X90.639 Y98.694 E0.00799
G1 X90.815 Y98.611 E0.00799
G1 X91.003 Y98.561 E0.00799
G1 X91.197 Y98.544 E0.00799
G1 X91.391 Y98.561 E0.00799
G1 X91.599 Y98.617 E0.00886
G1 X92.500 Y98.944 E0.03932
G1 X92.695 Y99.036 E0.00886
G1 X92.855 Y99.147 E0.00799
G1 X92.992 Y99.285 E0.00799
G1 X93.104 Y99.444 E0.00799
G1 X93.186 Y99.621 E0.00799
G1 X93.237 Y99.809 E0.00799
G1 X93.254 Y100.003 E0.00799
G1 X93.237 Y100.197 E0.00799
G1 X93.181 Y100.405 E0.00886
G1 X91.814 Y104.161 E0.16404
G1 X91.703 Y104.554 E0.01676
G1 X91.657 Y104.893 E0.01404
G1 X91.660 Y105.403 E0.02095
G1 X91.711 Y105.742 E0.01406
G1 X91.832 Y106.152 E0.01753
G1 X92.012 Y106.537 E0.01744
G1 X92.199 Y106.823 E0.01403
G1 X92.533 Y107.209 E0.02095
G1 X92.794 Y107.431 E0.01407
G1 X93.152 Y107.663 E0.01750
G1 X93.525 Y107.831 E0.01682
G1 X100.606 Y110.408 E0.30927
G1 X101.001 Y110.519 E0.01682
G1 X101.424 Y110.572 E0.01750
G1 X101.764 Y110.570 E0.01394
G1 X102.186 Y110.511 E0.01748
G1 X102.597 Y110.390 E0.01761
G1 X102.983 Y110.210 E0.01748
G1 X103.340 Y109.973 E0.01761
G1 X103.658 Y109.685 E0.01760
G1 X103.927 Y109.356 E0.01744
G1 X104.109 Y109.069 E0.01394
G1 X104.277 Y108.697 E0.01676
G1 X125.139 Y51.379 E2.50349
G1 X125.230 Y51.183 E0.00886
G1 X125.342 Y51.024 E0.00799
G1 X125.479 Y50.886 E0.00799
G1 X125.639 Y50.774 E0.00799
G1 X125.815 Y50.692 E0.00799
G1 X126.003 Y50.642 E0.00799
G1 X126.197 Y50.625 E0.00799
G1 X126.343 Y50.638 E0.00602
G1 X126.604 Y50.699 E0.01097
G1 X127.500 Y51.025 E0.03915
G1 X127.695 Y51.116 E0.00886
G1 X127.855 Y51.228 E0.00799
G1 X127.992 Y51.366 E0.00799
G1 X128.104 Y51.525 E0.00799
G1 X128.186 Y51.702 E0.00799
G1 X128.237 Y51.890 E0.00799
G1 X128.254 Y52.084 E0.00799
G1 X128.237 Y52.278 E0.00799
G1 X128.181 Y52.486 E0.00886
G1 X95.766 Y141.545 E3.88984
G1 X95.521 Y142.307 E0.03286
G1 X95.330 Y143.094 E0.03323
G1 X95.199 Y143.893 E0.03323
G1 X95.127 Y144.699 E0.03322
G1 X95.116 Y145.346 E0.02656
G1 X95.164 Y146.316 E0.03984
G1 X95.273 Y147.120 E0.03329
G1 X95.442 Y147.912 E0.03323
G1 X95.668 Y148.689 E0.03323
G1 X95.952 Y149.447 E0.03323
G1 X96.291 Y150.182 E0.03323
G1 X96.684 Y150.889 E0.03319
G1 X97.035 Y151.432 E0.02654
G1 X97.518 Y152.080 E0.03318
G1 X98.049 Y152.692 E0.03323
G1 X98.623 Y153.262 E0.03323
G1 X99.239 Y153.788 E0.03323
G1 X99.892 Y154.267 E0.03323
M73 P1 R101
G1 X100.580 Y154.697 E0.03329
G1 X101.444 Y155.139 E0.03985
G1 X102.038 Y155.395 E0.02657
G1 X102.803 Y155.661 E0.03321
G1 X103.585 Y155.870 E0.03323
G1 X104.381 Y156.020 E0.03323
G1 X105.185 Y156.110 E0.03323
G1 X105.985 Y156.140 E0.03286
G1 X162.551 Y156.140 E2.32163
M73 Q1 S103
G1 X162.766 Y156.158 E0.00886
G1 X162.954 Y156.209 E0.00799
G1 X163.130 Y156.291 E0.00799
G1 X163.290 Y156.403 E0.00799
G1 X163.428 Y156.540 E0.00799
G1 X163.539 Y156.700 E0.00799
G1 X163.622 Y156.876 E0.00799
G1 X163.672 Y157.064 E0.00799
G1 X163.691 Y157.279 E0.00886
G1 X163.691 Y158.237 E0.03932
G1 X163.672 Y158.452 E0.00886
G1 X163.622 Y158.640 E0.00799
G1 X163.539 Y158.817 E0.00799
G1 X163.428 Y158.976 E0.00799
G1 X163.290 Y159.114 E0.00799
G1 X163.130 Y159.226 E0.00799
G1 X162.954 Y159.308 E0.00799
G1 X162.766 Y159.358 E0.00799
G1 X162.551 Y159.377 E0.00886
G1 X125.075 Y159.377 E1.53812
G1 X124.750 Y158.944 F10800.000
;WIPE_START
G1 F8640.000
G1 X122.607 Y159.377 E-0.57000
;WIPE_END
G1 E-0.03000 F2100.000
G1 Z1.200 F10800.000
G1 X103.040 Y158.702
G1 Z0.200
G1 E0.60000 F2100.000
;TYPE:Solid infill
;WIDTH:0.563318
G1 F1200.000
G1 X91.312 Y146.974 E0.68177
M73 Q1 S102
G1 X91.116 Y147.514 E0.02360
G1 X102.070 Y158.468 E0.63681
G1 X101.334 Y158.468 E0.03025
G1 X90.920 Y148.053 E0.60544
G1 X90.723 Y148.593 E0.02360
G1 X100.598 Y158.468 E0.57407
G1 X99.862 Y158.468 E0.03025
G1 X90.527 Y149.133 E0.54270
G1 X90.330 Y149.672 E0.02360
G1 X99.126 Y158.468 E0.51134
G1 X98.390 Y158.468 E0.03025
G1 X90.134 Y150.212 E0.47997
G1 X89.938 Y150.751 E0.02360
G1 X97.654 Y158.468 E0.44860
G1 X96.918 Y158.468 E0.03025
G1 X89.741 Y151.291 E0.41723
G1 X89.545 Y151.830 E0.02360
G1 X96.182 Y158.468 E0.38587
G1 X95.446 Y158.468 E0.03025
G1 X89.349 Y152.370 E0.35450
G1 X89.152 Y152.910 E0.02360
G1 X94.710 Y158.468 E0.32313
G1 X93.974 Y158.468 E0.03025
G1 X88.956 Y153.449 E0.29176
G1 X88.759 Y153.989 E0.02360
G1 X93.239 Y158.468 E0.26039
G1 X92.503 Y158.468 E0.03025
G1 X88.563 Y154.528 E0.22903
G1 X88.367 Y155.068 E0.02360
G1 X91.767 Y158.468 E0.19766
G1 X91.031 Y158.468 E0.03025
G1 X88.170 Y155.607 E0.16629
G1 X87.974 Y156.147 E0.02360
G1 X90.295 Y158.468 E0.13492
G1 X89.559 Y158.468 E0.03025
G1 X87.777 Y156.687 E0.10356
G1 X87.581 Y157.226 E0.02360
G1 X88.823 Y158.468 E0.07219
G1 X88.087 Y158.468 E0.03025
G1 X87.385 Y157.766 E0.04082
G1 X87.257 Y158.116 E0.01534
G1 X87.229 Y158.261 E0.00607
G1 X87.241 Y158.327 E0.00272
G1 X87.283 Y158.400 E0.00348
G1 X87.585 Y158.702 E0.01753
;WIPE_START
G1 F8640.000
G1 X87.283 Y158.400 E-0.09849
G1 X87.241 Y158.327 E-0.01957
G1 X87.229 Y158.261 E-0.01530
G1 X87.257 Y158.116 E-0.03408
G1 X87.385 Y157.766 E-0.08618
G1 X88.087 Y158.468 E-0.22928
G1 X88.464 Y158.468 E-0.08709
;WIPE_END
G1 E-0.03000 F2100.000
G1 Z1.200 F10800.000
G1 X163.015 Y157.593
G1 Z0.200
G1 E0.60000 F2100.000
G1 F1200.000
G1 X162.471 Y157.049 E0.03164
G1 X161.735 Y157.049 E0.03025
G1 X162.782 Y158.095 E0.06083
G1 X162.758 Y158.329 E0.00967
G1 X162.725 Y158.387 E0.00272
G1 X162.672 Y158.431 E0.00285
G1 X162.590 Y158.461 E0.00357
G1 X162.418 Y158.468 E0.00708
G1 X160.999 Y157.049 E0.08249
G1 X160.263 Y157.049 E0.03025
G1 X161.682 Y158.468 E0.08249
G1 X160.946 Y158.468 E0.03025
G1 X159.527 Y157.049 E0.08249
G1 X158.791 Y157.049 E0.03025
G1 X160.210 Y158.468 E0.08249
G1 X159.474 Y158.468 E0.03025
G1 X158.055 Y157.049 E0.08249
G1 X157.319 Y157.049 E0.03025
G1 X158.738 Y158.468 E0.08249
G1 X158.002 Y158.468 E0.03025
G1 X156.583 Y157.049 E0.08249
G1 X155.847 Y157.049 E0.03025
G1 X157.266 Y158.468 E0.08249
G1 X156.531 Y158.468 E0.03025
G1 X155.112 Y157.049 E0.08249
G1 X154.376 Y157.049 E0.03025
G1 X155.795 Y158.468 E0.08249
G1 X155.059 Y158.468 E0.03025
G1 X153.640 Y157.049 E0.08249
G1 X152.904 Y157.049 E0.03025
G1 X154.323 Y158.468 E0.08249
G1 X153.587 Y158.468 E0.03025
G1 X152.168 Y157.049 E0.08249
G1 X151.432 Y157.049 E0.03025
G1 X152.851 Y158.468 E0.08249
G1 X152.115 Y158.468 E0.03025
G1 X150.696 Y157.049 E0.08249
G1 X149.960 Y157.049 E0.03025
G1 X151.379 Y158.468 E0.08249
G1 X150.643 Y158.468 E0.03025
G1 X149.224 Y157.049 E0.08249
G1 X148.488 Y157.049 E0.03025
G1 X149.907 Y158.468 E0.08249
G1 X149.171 Y158.468 E0.03025
G1 X147.752 Y157.049 E0.08249
G1 X147.016 Y157.049 E0.03025
G1 X148.435 Y158.468 E0.08249
G1 X147.699 Y158.468 E0.03025
G1 X146.280 Y157.049 E0.08249
G1 X145.544 Y157.049 E0.03025
G1 X146.963 Y158.468 E0.08249
G1 X146.227 Y158.468 E0.03025
G1 X144.808 Y157.049 E0.08249
G1 X144.072 Y157.049 E0.03025
G1 X145.491 Y158.468 E0.08249
G1 X144.755 Y158.468 E0.03025
G1 X143.336 Y157.049 E0.08249
G1 X142.600 Y157.049 E0.03025
G1 X144.019 Y158.468 E0.08249
G1 X143.283 Y158.468 E0.03025
G1 X141.864 Y157.049 E0.08249
G1 X141.128 Y157.049 E0.03025
G1 X142.547 Y158.468 E0.08249
G1 X141.811 Y158.468 E0.03025
G1 X140.392 Y157.049 E0.08249
G1 X139.657 Y157.049 E0.03025
G1 X141.076 Y158.468 E0.08249
G1 X140.340 Y158.468 E0.03025
G1 X138.921 Y157.049 E0.08249
G1 X138.185 Y157.049 E0.03025
G1 X139.604 Y158.468 E0.08249
G1 X138.868 Y158.468 E0.03025
G1 X137.449 Y157.049 E0.08249
G1 X136.713 Y157.049 E0.03025
G1 X138.132 Y158.468 E0.08249
G1 X137.396 Y158.468 E0.03025
G1 X135.977 Y157.049 E0.08249
G1 X135.241 Y157.049 E0.03025
G1 X136.660 Y158.468 E0.08249
G1 X135.924 Y158.468 E0.03025
G1 X134.505 Y157.049 E0.08249
G1 X133.769 Y157.049 E0.03025
G1 X135.188 Y158.468 E0.08249
G1 X134.452 Y158.468 E0.03025
G1 X133.033 Y157.049 E0.08249
G1 X132.297 Y157.049 E0.03025
G1 X133.716 Y158.468 E0.08249
G1 X132.980 Y158.468 E0.03025
G1 X131.561 Y157.049 E0.08249
G1 X130.825 Y157.049 E0.03025
G1 X132.244 Y158.468 E0.08249
G1 X131.508 Y158.468 E0.03025
G1 X130.089 Y157.049 E0.08249
G1 X129.353 Y157.049 E0.03025
G1 X130.772 Y158.468 E0.08249
G1 X130.036 Y158.468 E0.03025
G1 X128.617 Y157.049 E0.08249
G1 X127.881 Y157.049 E0.03025
G1 X129.300 Y158.468 E0.08249
G1 X128.564 Y158.468 E0.03025
G1 X127.145 Y157.049 E0.08249
G1 X126.409 Y157.049 E0.03025
G1 X127.828 Y158.468 E0.08249
G1 X127.092 Y158.468 E0.03025
G1 X125.673 Y157.049 E0.08249
G1 X124.937 Y157.049 E0.03025
G1 X126.356 Y158.468 E0.08249
G1 X125.620 Y158.468 E0.03025
G1 X124.201 Y157.049 E0.08249
G1 X123.466 Y157.049 E0.03025
