; generated by PrusaSlicer 2.3.0+win64 on 2021-01-19 at 21:00:46 UTC

; 

; external perimeters extrusion width = 0.56mm
; perimeters extrusion width = 0.56mm
; infill extrusion width = 0.56mm
; solid infill extrusion width = 0.56mm
; top infill extrusion width = 0.50mm
; support material extrusion width = 0.50mm

M73 P0 R123
M73 Q0 S124
M201 X1000 Y1000 Z1000 E5000 ; sets maximum accelerations, mm/sec^2
M203 X200 Y200 Z12 E120 ; sets maximum feedrates, mm/sec
M204 P1250 R1250 T1250 ; sets acceleration (P, T) and retract acceleration (R), mm/sec^2
M205 X8.00 Y8.00 Z0.40 E4.50 ; sets the jerk limits, mm/sec
M205 S0 T0 ; sets the minimum extruding and travel feed rate, mm/sec
M107
;TYPE:Custom
M862.3 P "MK3S" ; printer model check
M862.1 P0.5 ; nozzle diameter check
M115 U3.8.1 ; tell printer latest fw version
G90 ; use absolute coordinates
M83 ; extruder relative mode
M104 S220 ; set extruder temp
M140 S65 ; set bed temp
M190 S65 ; wait for bed temp
M109 S220 ; wait for extruder temp
G28 W ; home all without mesh bed level
G80 ; mesh bed leveling
G1 Y-3.0 F1000.0 ; go outside print area
G92 E0.0
G1 X60.0 E9.0 F1000.0 ; intro line
G1 X100.0 E12.5 F1000.0 ; intro line
G92 E0.0
M221 S95
G21 ; set units to millimeters
G90 ; use absolute coordinates
M83 ; use relative distances for extrusion
M900 K30 ; Filament gcode
;LAYER_CHANGE
;Z:0.2
;HEIGHT:0.2
;BEFORE_LAYER_CHANGE
G92 E0.0
;0.2


G1 E-0.60000 F2100.000
G1 Z1.000 F10800.000
;AFTER_LAYER_CHANGE
;0.2
G1 X128.164 Y49.009
G1 Z0.200
G1 E0.60000 F2100.000
M204 S1000
;TYPE:Skirt
;WIDTH:0.5625
G1 F1200.000
G1 X129.547 Y48.859 E0.05710
G1 X130.488 Y48.961 E0.03885
G1 X131.227 Y49.166 E0.03146
G1 X132.483 Y49.799 E0.05773
G1 X133.082 Y50.269 E0.03127
G1 X133.681 Y50.910 E0.03602
G1 X134.158 Y51.620 E0.03507
G1 X134.521 Y52.408 E0.03564
G1 X168.551 Y145.908 E4.08376
G1 X169.028 Y147.704 E0.07627
G1 X169.206 Y149.712 E0.08274
G1 X169.167 Y150.664 E0.03912
G1 X168.942 Y152.155 E0.06188
G1 X168.350 Y154.059 E0.08183
G1 X167.793 Y155.222 E0.05294
G1 X166.811 Y156.718 E0.07344
G1 X165.692 Y157.962 E0.06868
G1 X164.691 Y158.815 E0.05397
G1 X163.291 Y159.727 E0.06856
G1 X161.659 Y160.464 E0.07350
G1 X160.382 Y160.838 E0.05461
G1 X158.735 Y161.102 E0.06848
G1 X86.199 Y161.141 E2.97709
M73 P0 R122
G1 X85.269 Y161.058 E0.03834
G1 X84.297 Y160.788 E0.04140
G1 X83.272 Y160.269 E0.04714
G1 X82.537 Y159.701 E0.03813
G1 X81.882 Y158.978 E0.04004
G1 X81.378 Y158.169 E0.03910
G1 X81.049 Y157.365 E0.03568
G1 X80.844 Y156.453 E0.03834
G1 X80.793 Y154.703 E0.07188
G1 X80.856 Y153.901 E0.03303
G1 X90.725 Y107.653 E1.94089
G1 X93.635 Y98.234 E0.40459
G1 X94.124 Y97.341 E0.04178
G1 X125.051 Y51.087 E2.28369
G1 X125.844 Y50.221 E0.04819
G1 X126.384 Y49.796 E0.02823
G1 X127.060 Y49.404 E0.03203
G1 X128.093 Y49.035 E0.04505
; printing object Stand Celular Moe id:0 copy 0
;WIPE_START
G1 F8640.000
G1 X129.547 Y48.859 E-0.33810
G1 X130.488 Y48.961 E-0.21858
G1 X130.544 Y48.976 E-0.01332
;WIPE_END
G1 E-0.03000 F2100.000
G1 Z1.200 F10800.000
G1 X155.766 Y156.321
G1 Z0.200
G1 E0.60000 F2100.000
;TYPE:Perimeter
G1 F1200.000
G1 X86.255 Y156.321 E2.85295
G1 X86.120 Y156.309 E0.00557
G1 X85.983 Y156.270 E0.00586
G1 X85.838 Y156.184 E0.00693
G1 X85.691 Y156.007 E0.00942
G1 X85.626 Y155.823 E0.00799
G1 X85.614 Y154.764 E0.04350
G1 X85.652 Y154.522 E0.01004
G1 X85.748 Y154.351 E0.00803
G1 X85.921 Y154.202 E0.00938
G1 X86.111 Y154.135 E0.00828
G1 X86.255 Y154.122 E0.00593
G1 X150.668 Y154.122 E2.64370
G1 X151.431 Y154.090 E0.03134
G1 X152.209 Y153.993 E0.03220
G1 X152.977 Y153.830 E0.03220
G1 X153.728 Y153.604 E0.03220
G1 X154.458 Y153.316 E0.03220
G1 X155.161 Y152.969 E0.03220
G1 X155.833 Y152.563 E0.03220
G1 X156.469 Y152.104 E0.03220
G1 X157.064 Y151.593 E0.03220
G1 X157.615 Y151.034 E0.03220
G1 X158.117 Y150.431 E0.03220
G1 X158.567 Y149.788 E0.03220
G1 X158.962 Y149.110 E0.03220
G1 X159.299 Y148.402 E0.03220
G1 X159.575 Y147.667 E0.03220
G1 X159.790 Y146.913 E0.03220
G1 X159.941 Y146.143 E0.03220
G1 X160.027 Y145.363 E0.03220
G1 X160.048 Y144.579 E0.03220
G1 X160.003 Y143.796 E0.03220
G1 X159.893 Y143.019 E0.03220
G1 X159.719 Y142.254 E0.03220
G1 X159.488 Y141.526 E0.03134
G1 X139.168 Y85.696 E2.43849
G1 X138.876 Y84.988 E0.03145
G1 X138.516 Y84.287 E0.03231
G1 X138.099 Y83.620 E0.03231
G1 X137.627 Y82.989 E0.03231
G1 X137.104 Y82.401 E0.03231
G1 X136.534 Y81.858 E0.03231
G1 X135.921 Y81.364 E0.03231
G1 X135.268 Y80.924 E0.03231
G1 X134.581 Y80.540 E0.03231
G1 X133.866 Y80.216 E0.03221
G1 X133.267 Y79.999 E0.02615
G1 X132.365 Y79.751 E0.03839
G1 X131.586 Y79.613 E0.03248
G1 X130.805 Y79.542 E0.03217
G1 X130.171 Y79.532 E0.02603
G1 X129.389 Y79.579 E0.03216
G1 X128.610 Y79.691 E0.03231
G1 X127.843 Y79.868 E0.03231
G1 X127.093 Y80.109 E0.03231
G1 X126.367 Y80.411 E0.03231
G1 X125.664 Y80.776 E0.03250
G1 X124.878 Y81.283 E0.03836
G1 X124.372 Y81.668 E0.02614
G1 X123.786 Y82.192 E0.03224
G1 X123.245 Y82.764 E0.03231
G1 X122.754 Y83.379 E0.03231
G1 X122.313 Y84.038 E0.03253
G1 X121.872 Y84.860 E0.03830
G1 X121.611 Y85.440 E0.02610
G1 X121.357 Y86.162 E0.03143
G1 X112.815 Y114.102 E1.19914
G1 X112.708 Y114.323 E0.01004
G1 X112.566 Y114.458 E0.00803
G1 X112.448 Y114.521 E0.00551
G1 X112.255 Y114.563 E0.00812
G1 X112.005 Y114.526 E0.01034
G1 X95.846 Y109.585 E0.69352
G1 X95.674 Y109.511 E0.00769
G1 X95.547 Y109.413 E0.00661
G1 X95.465 Y109.307 E0.00551
G1 X95.399 Y109.156 E0.00673
G1 X95.378 Y109.016 E0.00581
G1 X95.412 Y108.782 E0.00973
G1 X98.018 Y100.256 E0.36594
G1 X98.072 Y100.121 E0.00593
G1 X98.193 Y99.960 E0.00828
G1 X98.386 Y99.837 E0.00938
G1 X98.577 Y99.795 E0.00803
G1 X98.819 Y99.830 E0.01004
G1 X99.821 Y100.148 E0.04314
G1 X99.941 Y100.226 E0.00586
G1 X100.050 Y100.346 E0.00668
G1 X100.142 Y100.556 E0.00938
G1 X100.153 Y100.723 E0.00689
G1 X100.118 Y100.907 E0.00769
G1 X98.953 Y104.718 E0.16356
G1 X98.851 Y105.164 E0.01879
G1 X98.813 Y105.658 E0.02032
G1 X98.846 Y106.148 E0.02015
G1 X98.929 Y106.550 E0.01686
G1 X99.119 Y107.087 E0.02336
G1 X99.313 Y107.451 E0.01692
G1 X99.600 Y107.855 E0.02038
G1 X100.006 Y108.262 E0.02358
G1 X100.332 Y108.511 E0.01683
G1 X100.760 Y108.754 E0.02020
G1 X101.187 Y108.919 E0.01879
G1 X107.950 Y110.987 E0.29028
G1 X108.397 Y111.089 E0.01879
G1 X108.890 Y111.127 E0.02032
G1 X109.384 Y111.094 E0.02032
G1 X109.868 Y110.989 E0.02031
G1 X110.325 Y110.818 E0.02005
G1 X110.683 Y110.627 E0.01663
G1 X111.081 Y110.344 E0.02005
G1 X111.438 Y110.002 E0.02031
G1 X111.742 Y109.611 E0.02032
G1 X111.986 Y109.180 E0.02032
G1 X112.152 Y108.753 E0.01879
G1 X128.848 Y54.141 E2.34389
G1 X128.901 Y54.010 E0.00578
G1 X129.017 Y53.850 E0.00810
G1 X129.179 Y53.737 E0.00810
G1 X129.271 Y53.703 E0.00406
G1 X129.467 Y53.681 E0.00810
G1 X129.670 Y53.730 E0.00857
G1 X129.748 Y53.770 E0.00358
G1 X129.896 Y53.900 E0.00810
G1 X130.011 Y54.110 E0.00981
G1 X163.982 Y147.444 E4.07657
G1 X164.160 Y148.009 E0.02431
G1 X164.284 Y148.566 E0.02342
G1 X164.359 Y149.127 E0.02322
G1 X164.383 Y149.820 E0.02847
G1 X164.363 Y150.270 E0.01849
G1 X164.291 Y150.837 E0.02347
G1 X164.170 Y151.395 E0.02342
G1 X164.001 Y151.940 E0.02341
G1 X163.786 Y152.468 E0.02341
G1 X163.527 Y152.976 E0.02341
G1 X163.226 Y153.457 E0.02328
G1 X162.807 Y154.004 E0.02826
G1 X162.419 Y154.421 E0.02338
G1 X162.087 Y154.725 E0.01846
G1 X161.540 Y155.149 E0.02843
G1 X161.059 Y155.452 E0.02332
G1 X160.660 Y155.659 E0.01848
G1 X160.021 Y155.930 E0.02846
G1 X159.480 Y156.099 E0.02326
G1 X159.040 Y156.197 E0.01851
G1 X158.353 Y156.295 E0.02849
G1 X157.766 Y156.321 E0.02410
G1 X155.841 Y156.321 E0.07901
G1 X155.978 Y156.840 F10800.000
;TYPE:External perimeter
G1 F1200.000
G1 X86.233 Y156.840 E2.86254
G1 X86.025 Y156.823 E0.00855
G1 X85.800 Y156.758 E0.00961
G1 X85.666 Y156.695 E0.00608
G1 X85.508 Y156.587 E0.00786
G1 X85.372 Y156.456 E0.00774
G1 X85.239 Y156.267 E0.00949
G1 X85.161 Y156.096 E0.00772
G1 X85.112 Y155.912 E0.00781
G1 X85.094 Y155.702 E0.00867
G1 X85.094 Y154.741 E0.03941
G1 X85.112 Y154.531 E0.00867
G1 X85.161 Y154.347 E0.00782
G1 X85.240 Y154.173 E0.00782
G1 X85.346 Y154.018 E0.00773
G1 X85.509 Y153.854 E0.00949
G1 X85.665 Y153.748 E0.00773
G1 X85.838 Y153.669 E0.00782
G1 X86.022 Y153.621 E0.00782
G1 X86.233 Y153.603 E0.00867
G1 X150.657 Y153.603 E2.64417
G1 X151.388 Y153.572 E0.03001
G1 X152.123 Y153.480 E0.03042
G1 X152.848 Y153.326 E0.03042
G1 X153.558 Y153.113 E0.03042
G1 X154.247 Y152.841 E0.03042
G1 X154.912 Y152.512 E0.03042
G1 X155.546 Y152.130 E0.03042
G1 X156.147 Y151.695 E0.03042
G1 X156.709 Y151.213 E0.03042
G1 X157.229 Y150.685 E0.03042
G1 X157.704 Y150.115 E0.03042
G1 X158.129 Y149.508 E0.03042
G1 X158.502 Y148.867 E0.03042
G1 X158.820 Y148.198 E0.03042
G1 X159.081 Y147.505 E0.03042
G1 X159.284 Y146.792 E0.03042
G1 X159.427 Y146.064 E0.03042
G1 X159.508 Y145.328 E0.03042
G1 X159.528 Y144.587 E0.03042
G1 X159.486 Y143.847 E0.03042
G1 X159.382 Y143.113 E0.03042
G1 X159.217 Y142.390 E0.03042
G1 X158.996 Y141.693 E0.03001
G1 X138.683 Y85.884 E2.43759
M73 Q0 S123
G1 X138.404 Y85.206 E0.03011
G1 X138.064 Y84.544 E0.03052
G1 X137.670 Y83.914 E0.03052
G1 X137.224 Y83.318 E0.03052
G1 X136.730 Y82.762 E0.03052
G1 X136.192 Y82.249 E0.03052
G1 X135.612 Y81.783 E0.03052
G1 X134.996 Y81.367 E0.03052
G1 X134.346 Y81.004 E0.03052
G1 X133.670 Y80.698 E0.03049
G1 X133.109 Y80.494 E0.02447
G1 X132.251 Y80.258 E0.03654
G1 X131.517 Y80.129 E0.03058
G1 X130.778 Y80.061 E0.03047
G1 X130.183 Y80.052 E0.02443
G1 X129.442 Y80.096 E0.03047
G1 X128.706 Y80.202 E0.03052
G1 X127.981 Y80.369 E0.03052
G1 X127.273 Y80.597 E0.03052
G1 X126.586 Y80.883 E0.03052
G1 X125.925 Y81.226 E0.03059
G1 X125.177 Y81.708 E0.03653
G1 X124.702 Y82.069 E0.02447
G1 X124.149 Y82.564 E0.03050
G1 X123.638 Y83.105 E0.03052
G1 X123.174 Y83.686 E0.03052
G1 X122.759 Y84.306 E0.03060
G1 X122.338 Y85.089 E0.03651
G1 X122.094 Y85.633 E0.02446
G1 X121.851 Y86.325 E0.03010
G1 X113.305 Y114.276 E1.19961
G1 X113.227 Y114.472 E0.00867
G1 X113.126 Y114.634 E0.00782
G1 X113.000 Y114.776 E0.00782
G1 X112.853 Y114.894 E0.00773
G1 X112.649 Y115.002 E0.00949
G1 X112.469 Y115.059 E0.00773
G1 X112.280 Y115.084 E0.00785
G1 X112.131 Y115.078 E0.00609
G1 X111.880 Y115.031 E0.01048
G1 X95.667 Y110.074 E0.69583
G1 X95.433 Y109.973 E0.01048
G1 X95.307 Y109.894 E0.00609
G1 X95.166 Y109.769 E0.00775
G1 X95.024 Y109.586 E0.00949
G1 X94.937 Y109.417 E0.00781
G1 X94.892 Y109.276 E0.00607
G1 X94.857 Y109.045 E0.00960
G1 X94.864 Y108.858 E0.00770
G1 X94.908 Y108.651 E0.00867
G1 X97.528 Y100.082 E0.36776
G1 X97.607 Y99.886 E0.00867
G1 X97.707 Y99.724 E0.00782
G1 X97.833 Y99.582 E0.00782
G1 X97.980 Y99.464 E0.00773
G1 X98.184 Y99.356 E0.00949
G1 X98.364 Y99.299 E0.00773
G1 X98.553 Y99.275 E0.00782
G1 X98.743 Y99.282 E0.00782
G1 X98.950 Y99.326 E0.00867
G1 X99.868 Y99.607 E0.03941
G1 X100.061 Y99.685 E0.00855
G1 X100.258 Y99.812 E0.00961
G1 X100.368 Y99.911 E0.00608
G1 X100.486 Y100.059 E0.00778
G1 X100.595 Y100.264 E0.00949
G1 X100.651 Y100.443 E0.00773
G1 X100.676 Y100.633 E0.00785
G1 X100.671 Y100.781 E0.00609
G1 X100.623 Y101.032 E0.01048
G1 X99.455 Y104.852 E0.16394
G1 X99.366 Y105.243 E0.01646
G1 X99.334 Y105.661 E0.01720
G1 X99.362 Y106.078 E0.01714
G1 X99.430 Y106.410 E0.01394
G1 X99.596 Y106.877 E0.02031
G1 X99.756 Y107.177 E0.01396
G1 X99.999 Y107.519 E0.01722
G1 X100.350 Y107.871 E0.02039
G1 X100.619 Y108.077 E0.01393
G1 X100.983 Y108.283 E0.01716
G1 X101.357 Y108.428 E0.01646
G1 X108.084 Y110.485 E0.28873
G1 X108.475 Y110.574 E0.01646
G1 X108.893 Y110.606 E0.01720
G1 X109.311 Y110.578 E0.01720
G1 X109.721 Y110.489 E0.01720
G1 X110.111 Y110.343 E0.01711
G1 X110.409 Y110.184 E0.01386
G1 X110.749 Y109.943 E0.01711
G1 X111.051 Y109.653 E0.01720
G1 X111.309 Y109.322 E0.01720
G1 X111.515 Y108.957 E0.01720
G1 X111.660 Y108.583 E0.01646
G1 X128.358 Y53.968 E2.34400
G1 X128.434 Y53.777 E0.00844
G1 X128.531 Y53.618 E0.00762
G1 X128.652 Y53.478 E0.00762
G1 X128.795 Y53.359 E0.00762
G1 X128.956 Y53.266 E0.00762
G1 X129.129 Y53.201 E0.00762
G1 X129.312 Y53.165 E0.00762
G1 X129.497 Y53.161 E0.00762
G1 X129.862 Y53.244 E0.01535
G1 X130.023 Y53.327 E0.00745
G1 X130.172 Y53.438 E0.00762
G1 X130.301 Y53.572 E0.00762
G1 X130.405 Y53.725 E0.00762
G1 X130.492 Y53.912 E0.00844
G1 X164.474 Y147.277 E4.07792
G1 X164.662 Y147.874 E0.02569
G1 X164.796 Y148.475 E0.02526
G1 X164.877 Y149.083 E0.02519
G1 X164.903 Y149.822 E0.03035
G1 X164.881 Y150.314 E0.02021
G1 X164.803 Y150.925 E0.02528
G1 X164.673 Y151.527 E0.02526
G1 X164.491 Y152.115 E0.02526
G1 X164.259 Y152.685 E0.02526
G1 X163.979 Y153.233 E0.02526
G1 X163.653 Y153.754 E0.02521
G1 X163.204 Y154.339 E0.03028
G1 X162.785 Y154.790 E0.02525
G1 X162.422 Y155.122 E0.02020
G1 X161.838 Y155.575 E0.03034
G1 X161.318 Y155.903 E0.02523
G1 X160.881 Y156.130 E0.02021
G1 X160.200 Y156.418 E0.03035
M73 P1 R122
G1 X159.614 Y156.601 E0.02521
G1 X159.133 Y156.708 E0.02022
G1 X158.401 Y156.813 E0.03036
G1 X157.778 Y156.840 E0.02562
G1 X156.053 Y156.840 E0.07080
G1 X155.726 Y156.408 F10800.000
;WIPE_START
G1 F8640.000
G1 X153.584 Y156.840 E-0.57000
;WIPE_END
M73 P1 R121
G1 E-0.03000 F2100.000
G1 Z1.200 F10800.000
G1 X86.369 Y156.165
M73 Q1 S123
G1 Z0.200
G1 E0.60000 F2100.000
;TYPE:Solid infill
;WIDTH:0.564238
G1 F1200.000
G1 X86.064 Y155.859 E0.01781
G1 X86.016 Y155.757 E0.00466
G1 X86.016 Y155.074 E0.02811
G1 X86.873 Y155.931 E0.04992
G1 X87.610 Y155.931 E0.03036
G1 X86.204 Y154.525 E0.08189
G1 X86.286 Y154.512 E0.00340
G1 X86.928 Y154.512 E0.02648
G1 X88.347 Y155.931 E0.08264
G1 X89.085 Y155.931 E0.03036
G1 X87.666 Y154.512 E0.08264
G1 X88.403 Y154.512 E0.03036
G1 X89.822 Y155.931 E0.08264
G1 X90.559 Y155.931 E0.03036
G1 X89.140 Y154.512 E0.08264
G1 X89.877 Y154.512 E0.03036
G1 X91.296 Y155.931 E0.08264
G1 X92.034 Y155.931 E0.03036
G1 X90.615 Y154.512 E0.08264
G1 X91.352 Y154.512 E0.03036
G1 X92.771 Y155.931 E0.08264
G1 X93.508 Y155.931 E0.03036
G1 X92.089 Y154.512 E0.08264
G1 X92.826 Y154.512 E0.03036
G1 X94.245 Y155.931 E0.08264
G1 X94.983 Y155.931 E0.03036
G1 X93.564 Y154.512 E0.08264
G1 X94.301 Y154.512 E0.03036
G1 X95.720 Y155.931 E0.08264
G1 X96.457 Y155.931 E0.03036
G1 X95.038 Y154.512 E0.08264
G1 X95.776 Y154.512 E0.03036
G1 X97.194 Y155.931 E0.08264
G1 X97.932 Y155.931 E0.03036
G1 X96.513 Y154.512 E0.08264
G1 X97.250 Y154.512 E0.03036
G1 X98.669 Y155.931 E0.08264
G1 X99.406 Y155.931 E0.03036
G1 X97.987 Y154.512 E0.08264
G1 X98.725 Y154.512 E0.03036
G1 X100.144 Y155.931 E0.08264
G1 X100.881 Y155.931 E0.03036
G1 X99.462 Y154.512 E0.08264
G1 X100.199 Y154.512 E0.03036
G1 X101.618 Y155.931 E0.08264
G1 X102.355 Y155.931 E0.03036
G1 X100.936 Y154.512 E0.08264
G1 X101.674 Y154.512 E0.03036
G1 X103.093 Y155.931 E0.08264
G1 X103.830 Y155.931 E0.03036
G1 X102.411 Y154.512 E0.08264
G1 X103.148 Y154.512 E0.03036
G1 X104.567 Y155.931 E0.08264
G1 X105.304 Y155.931 E0.03036
G1 X103.885 Y154.512 E0.08264
G1 X104.623 Y154.512 E0.03036
G1 X106.042 Y155.931 E0.08264
G1 X106.779 Y155.931 E0.03036
G1 X105.360 Y154.512 E0.08264
G1 X106.097 Y154.512 E0.03036
G1 X107.516 Y155.931 E0.08264
G1 X108.253 Y155.931 E0.03036
G1 X106.834 Y154.512 E0.08264
G1 X107.572 Y154.512 E0.03036
G1 X108.991 Y155.931 E0.08264
G1 X109.728 Y155.931 E0.03036
G1 X108.309 Y154.512 E0.08264
G1 X109.046 Y154.512 E0.03036
G1 X110.465 Y155.931 E0.08264
G1 X111.202 Y155.931 E0.03036
G1 X109.783 Y154.512 E0.08264
G1 X110.521 Y154.512 E0.03036
G1 X111.940 Y155.931 E0.08264
G1 X112.677 Y155.931 E0.03036
G1 X111.258 Y154.512 E0.08264
G1 X111.995 Y154.512 E0.03036
G1 X113.414 Y155.931 E0.08264
G1 X114.151 Y155.931 E0.03036
G1 X112.732 Y154.512 E0.08264
G1 X113.470 Y154.512 E0.03036
G1 X114.889 Y155.931 E0.08264
G1 X115.626 Y155.931 E0.03036
G1 X114.207 Y154.512 E0.08264
G1 X114.944 Y154.512 E0.03036
G1 X116.363 Y155.931 E0.08264
G1 X117.100 Y155.931 E0.03036
G1 X115.681 Y154.512 E0.08264
G1 X116.419 Y154.512 E0.03036
G1 X117.838 Y155.931 E0.08264
G1 X118.575 Y155.931 E0.03036
G1 X117.156 Y154.512 E0.08264
G1 X117.893 Y154.512 E0.03036
G1 X119.312 Y155.931 E0.08264
G1 X120.049 Y155.931 E0.03036
G1 X118.630 Y154.512 E0.08264
G1 X119.368 Y154.512 E0.03036
G1 X120.787 Y155.931 E0.08264
G1 X121.524 Y155.931 E0.03036
