; generated by PrusaSlicer 2.3.0+win64 on 2021-01-19 at 21:00:45 UTC

; 

; external perimeters extrusion width = 0.56mm
; perimeters extrusion width = 0.56mm
; infill extrusion width = 0.56mm
; solid infill extrusion width = 0.56mm
; top infill extrusion width = 0.50mm
; support material extrusion width = 0.50mm

M73 P0 R115
M73 Q0 S116
M201 X1000 Y1000 Z1000 E5000 ; sets maximum accelerations, mm/sec^2
M203 X200 Y200 Z12 E120 ; sets maximum feedrates, mm/sec
M204 P1250 R1250 T1250 ; sets acceleration (P, T) and retract acceleration (R), mm/sec^2
M205 X8.00 Y8.00 Z0.40 E4.50 ; sets the jerk limits, mm/sec
M205 S0 T0 ; sets the minimum extruding and travel feed rate, mm/sec
M107
;TYPE:Custom
M862.3 P "MK3S" ; printer model check
M862.1 P0.5 ; nozzle diameter check
M115 U3.8.1 ; tell printer latest fw version
G90 ; use absolute coordinates
M83 ; extruder relative mode
M104 S220 ; set extruder temp
M140 S65 ; set bed temp
M190 S65 ; wait for bed temp
M109 S220 ; wait for extruder temp
G28 W ; home all without mesh bed level
G80 ; mesh bed leveling
G1 Y-3.0 F1000.0 ; go outside print area
G92 E0.0
G1 X60.0 E9.0 F1000.0 ; intro line
G1 X100.0 E12.5 F1000.0 ; intro line
G92 E0.0
M221 S95
G21 ; set units to millimeters
G90 ; use absolute coordinates
M83 ; use relative distances for extrusion
M900 K30 ; Filament gcode
;LAYER_CHANGE
;Z:0.2
;HEIGHT:0.2
;BEFORE_LAYER_CHANGE
G92 E0.0
;0.2


G1 E-0.60000 F2100.000
G1 Z1.000 F10800.000
;AFTER_LAYER_CHANGE
;0.2
G1 X83.483 Y94.499
G1 Z0.200
G1 E0.60000 F2100.000
M204 S1000
;TYPE:Skirt
;WIDTH:0.5625
G1 F1200.000
G1 X83.936 Y93.930 E0.03016
G1 X123.079 Y49.132 E2.46732
G1 X123.904 Y48.425 E0.04508
G1 X124.864 Y47.894 E0.04549
G1 X125.856 Y47.580 E0.04318
G1 X127.168 Y47.462 E0.05464
G1 X128.237 Y47.599 E0.04471
G1 X129.100 Y47.881 E0.03764
G1 X133.481 Y49.965 E0.20120
G1 X134.613 Y50.900 E0.06092
G1 X135.114 Y51.531 E0.03342
G1 X135.565 Y52.340 E0.03841
G1 X176.618 Y155.053 E4.58768
G1 X176.964 Y156.280 E0.05290
G1 X177.031 Y157.274 E0.04130
G1 X176.901 Y158.322 E0.04380
G1 X176.581 Y159.295 E0.04246
G1 X176.209 Y160.000 E0.03308
G1 X175.758 Y160.618 E0.03173
G1 X174.753 Y161.540 E0.05657
G1 X174.138 Y161.922 E0.03000
G1 X173.346 Y162.262 E0.03576
G1 X172.532 Y162.467 E0.03481
G1 X171.711 Y162.544 E0.03423
G1 X78.366 Y162.546 E3.87149
G1 X77.275 Y162.429 E0.04549
G1 X76.037 Y162.006 E0.05426
G1 X74.838 Y161.220 E0.05949
G1 X74.282 Y160.666 E0.03256
G1 X73.738 Y159.913 E0.03850
G1 X73.376 Y159.196 E0.03333
G1 X73.113 Y158.383 E0.03544
G1 X72.980 Y157.534 E0.03563
G1 X72.980 Y156.744 E0.03276
G1 X78.763 Y105.141 E2.15365
G1 X78.921 Y104.298 E0.03557
G1 X79.216 Y103.478 E0.03611
G1 X83.077 Y95.199 E0.37890
G1 X83.445 Y94.563 E0.03046
; printing object Stand Celular Larry id:0 copy 0
;WIPE_START
G1 F8640.000
G1 X83.936 Y93.930 E-0.18506
G1 X85.033 Y92.674 E-0.38494
;WIPE_END
G1 E-0.03000 F2100.000
G1 Z1.200 F10800.000
G1 X82.988 Y157.691
G1 Z0.200
G1 E0.60000 F2100.000
;TYPE:Perimeter
G1 F1200.000
G1 X82.757 Y157.725 E0.00966
G1 X78.285 Y157.713 E0.18548
G1 X78.098 Y157.648 E0.00823
G1 X77.942 Y157.525 E0.00823
G1 X77.836 Y157.358 E0.00823
G1 X77.805 Y157.263 E0.00413
G1 X77.792 Y157.066 E0.00823
G1 X77.859 Y156.835 E0.00996
G1 X96.889 Y116.026 E1.86753
G1 X97.065 Y115.553 E0.02093
G1 X97.170 Y115.018 E0.02263
G1 X97.189 Y114.472 E0.02263
G1 X97.121 Y113.931 E0.02263
G1 X96.969 Y113.415 E0.02229
G1 X96.780 Y113.002 E0.01885
G1 X96.429 Y112.482 E0.02603
G1 X96.124 Y112.149 E0.01873
G1 X95.702 Y111.809 E0.02248
G1 X95.263 Y111.560 E0.02093
G1 X83.938 Y106.279 E0.51829
G1 X83.730 Y106.138 E0.01039
G1 X83.612 Y105.969 E0.00857
G1 X83.576 Y105.871 E0.00430
G1 X83.558 Y105.665 E0.00857
M73 P0 R114
G1 X83.627 Y105.424 E0.01039
G1 X87.393 Y97.347 E0.36965
G1 X87.534 Y97.139 E0.01039
G1 X87.703 Y97.021 E0.00858
G1 X87.915 Y96.967 E0.00907
G1 X88.109 Y96.985 E0.00806
G1 X89.075 Y97.421 E0.04395
G1 X89.203 Y97.495 E0.00612
G1 X89.282 Y97.562 E0.00430
G1 X89.401 Y97.731 E0.00857
G1 X89.454 Y97.931 E0.00858
G1 X89.436 Y98.137 E0.00858
G1 X89.386 Y98.276 E0.00612
G1 X87.697 Y101.898 E0.16575
G1 X87.521 Y102.371 E0.02093
G1 X87.415 Y102.906 E0.02263
G1 X87.396 Y103.446 E0.02242
G1 X87.447 Y103.896 E0.01877
G1 X87.613 Y104.501 E0.02603
G1 X87.801 Y104.914 E0.01881
G1 X88.093 Y105.367 E0.02236
G1 X88.458 Y105.773 E0.02263
G1 X88.883 Y106.115 E0.02263
G1 X89.322 Y106.364 E0.02093
G1 X96.192 Y109.567 E0.31439
G1 X96.665 Y109.743 E0.02093
G1 X97.201 Y109.849 E0.02263
G1 X97.746 Y109.868 E0.02263
G1 X98.281 Y109.800 E0.02236
G1 X98.710 Y109.681 E0.01849
G1 X99.203 Y109.466 E0.02229
G1 X99.670 Y109.166 E0.02302
G1 X100.130 Y108.731 E0.02624
G1 X100.410 Y108.379 E0.01869
G1 X100.658 Y107.942 E0.02084
G1 X126.437 Y52.660 E2.52983
G1 X126.577 Y52.453 E0.01039
G1 X126.746 Y52.334 E0.00858
G1 X126.844 Y52.299 E0.00430
G1 X127.050 Y52.281 E0.00858
G1 X127.302 Y52.354 E0.01088
G1 X130.965 Y54.077 E0.16788
G1 X131.044 Y54.143 E0.00430
G1 X131.163 Y54.313 E0.00858
G1 X131.216 Y54.513 E0.00858
G1 X131.198 Y54.718 E0.00858
G1 X131.148 Y54.857 E0.00612
G1 X121.032 Y76.552 E0.99279
G1 X120.755 Y77.220 E0.03001
G1 X120.533 Y77.932 E0.03095
G1 X120.374 Y78.662 E0.03095
G1 X120.281 Y79.402 E0.03095
G1 X120.254 Y80.148 E0.03095
G1 X120.293 Y80.888 E0.03076
G1 X120.371 Y81.479 E0.02473
G1 X120.526 Y82.205 E0.03079
G1 X120.747 Y82.918 E0.03095
G1 X121.029 Y83.609 E0.03095
G1 X121.372 Y84.272 E0.03095
G1 X121.760 Y84.882 E0.03001
G1 X172.081 Y156.748 E3.63869
G1 X172.153 Y156.871 E0.00589
G1 X172.207 Y157.062 E0.00825
G1 X172.209 Y157.162 E0.00414
G1 X172.164 Y157.356 E0.00825
G1 X172.058 Y157.524 E0.00825
G1 X171.902 Y157.648 E0.00825
G1 X171.714 Y157.713 E0.00825
G1 X171.573 Y157.725 E0.00589
G1 X171.044 Y157.725 E0.02191
G1 X170.817 Y157.692 E0.00954
G1 X170.649 Y157.604 E0.00788
G1 X170.491 Y157.437 E0.00954
G1 X126.495 Y94.605 E3.18129
G1 X126.038 Y94.012 E0.03104
G1 X125.513 Y93.447 E0.03201
G1 X124.939 Y92.933 E0.03196
G1 X124.439 Y92.560 E0.02588
G1 X123.664 Y92.074 E0.03794
G1 X122.965 Y91.733 E0.03223
G1 X122.244 Y91.459 E0.03200
G1 X121.500 Y91.253 E0.03200
G1 X120.741 Y91.116 E0.03200
G1 X119.976 Y91.049 E0.03185
M73 Q0 S115
G1 X119.351 Y91.047 E0.02594
G1 X118.441 Y91.126 E0.03787
G1 X117.825 Y91.237 E0.02594
G1 X117.083 Y91.436 E0.03185
G1 X116.355 Y91.704 E0.03220
G1 X115.533 Y92.108 E0.03799
G1 X114.998 Y92.431 E0.02590
G1 X114.376 Y92.884 E0.03191
G1 X113.792 Y93.397 E0.03224
G1 X113.173 Y94.070 E0.03793
G1 X112.789 Y94.561 E0.02587
G1 X112.370 Y95.208 E0.03197
G1 X112.023 Y95.871 E0.03104
G1 X83.358 Y157.343 E2.81310
G1 X83.230 Y157.537 E0.00966
G1 X83.057 Y157.661 E0.00884
G1 X82.978 Y158.229 F10800.000
;TYPE:External perimeter
G1 F1200.000
G1 X82.779 Y158.245 E0.00831
G1 X78.405 Y158.245 E0.18141
G1 X78.199 Y158.228 E0.00858
G1 X78.018 Y158.181 E0.00774
G1 X77.847 Y158.105 E0.00774
G1 X77.692 Y158.002 E0.00774
G1 X77.555 Y157.875 E0.00774
G1 X77.442 Y157.726 E0.00774
G1 X77.356 Y157.561 E0.00774
G1 X77.298 Y157.384 E0.00774
G1 X77.270 Y157.199 E0.00774
G1 X77.273 Y157.013 E0.00774
G1 X77.308 Y156.829 E0.00774
G1 X77.379 Y156.635 E0.00858
G1 X96.409 Y115.825 E1.86756
G1 X96.563 Y115.411 E0.01833
G1 X96.653 Y114.958 E0.01916
G1 X96.669 Y114.496 E0.01916
G1 X96.611 Y114.038 E0.01916
G1 X96.481 Y113.598 E0.01904
G1 X96.326 Y113.257 E0.01553
G1 X96.020 Y112.804 E0.02264
G1 X95.768 Y112.529 E0.01549
G1 X95.409 Y112.240 E0.01911
G1 X95.025 Y112.022 E0.01833
G1 X83.697 Y106.740 E0.51836
G1 X83.511 Y106.632 E0.00895
G1 X83.361 Y106.507 E0.00808
G1 X83.236 Y106.358 E0.00807
G1 X83.139 Y106.189 E0.00807
G1 X83.072 Y106.006 E0.00808
G1 X83.039 Y105.814 E0.00807
G1 X83.039 Y105.620 E0.00807
G1 X83.072 Y105.428 E0.00807
G1 X83.146 Y105.225 E0.00895
G1 X86.932 Y97.107 E0.37153
G1 X87.040 Y96.920 E0.00895
G1 X87.165 Y96.770 E0.00807
G1 X87.314 Y96.645 E0.00807
G1 X87.483 Y96.548 E0.00807
G1 X87.621 Y96.498 E0.00609
G1 X87.862 Y96.448 E0.01021
G1 X88.052 Y96.448 E0.00789
G1 X88.244 Y96.481 E0.00807
G1 X88.447 Y96.555 E0.00895
G1 X89.315 Y96.960 E0.03973
G1 X89.502 Y97.068 E0.00895
G1 X89.651 Y97.193 E0.00807
G1 X89.776 Y97.342 E0.00807
G1 X89.873 Y97.511 E0.00807
G1 X89.940 Y97.694 E0.00808
G1 X89.974 Y97.886 E0.00807
G1 X89.974 Y98.080 E0.00807
G1 X89.940 Y98.272 E0.00807
G1 X89.866 Y98.475 E0.00895
G1 X88.176 Y102.098 E0.16582
G1 X88.022 Y102.513 E0.01833
G1 X87.933 Y102.966 E0.01916
G1 X87.917 Y103.426 E0.01909
G1 X87.959 Y103.797 E0.01551
G1 X88.103 Y104.324 E0.02264
G1 X88.259 Y104.664 E0.01552
G1 X88.507 Y105.051 E0.01906
G1 X88.816 Y105.394 E0.01916
G1 X89.177 Y105.683 E0.01916
G1 X89.561 Y105.902 E0.01833
G1 X96.393 Y109.088 E0.31265
G1 X96.807 Y109.242 E0.01833
G1 X97.260 Y109.331 E0.01916
G1 X97.722 Y109.347 E0.01916
G1 X98.178 Y109.290 E0.01906
G1 X98.536 Y109.190 E0.01541
G1 X98.957 Y109.007 E0.01904
G1 X99.348 Y108.755 E0.01930
G1 X99.746 Y108.379 E0.02271
G1 X99.978 Y108.087 E0.01548
G1 X100.196 Y107.703 E0.01830
G1 X125.975 Y52.420 E2.52990
G1 X126.083 Y52.233 E0.00895
G1 X126.208 Y52.084 E0.00807
G1 X126.357 Y51.959 E0.00808
G1 X126.526 Y51.862 E0.00807
G1 X126.709 Y51.795 E0.00807
G1 X126.901 Y51.761 E0.00807
G1 X127.095 Y51.761 E0.00808
G1 X127.240 Y51.787 E0.00608
G1 X127.494 Y51.871 E0.01109
G1 X131.077 Y53.542 E0.16398
G1 X131.264 Y53.649 E0.00895
G1 X131.413 Y53.775 E0.00807
G1 X131.538 Y53.924 E0.00807
G1 X131.636 Y54.092 E0.00807
G1 X131.702 Y54.275 E0.00807
G1 X131.736 Y54.467 E0.00807
G1 X131.736 Y54.662 E0.00807
G1 X131.702 Y54.853 E0.00807
G1 X131.628 Y55.056 E0.00895
G1 X121.507 Y76.761 E0.99325
G1 X121.244 Y77.397 E0.02857
G1 X121.036 Y78.065 E0.02903
G1 X120.887 Y78.749 E0.02903
G1 X120.800 Y79.444 E0.02903
G1 X120.774 Y80.143 E0.02903
G1 X120.811 Y80.841 E0.02896
G1 X120.884 Y81.391 E0.02303
G1 X121.030 Y82.074 E0.02897
G1 X121.236 Y82.743 E0.02903
G1 X121.501 Y83.391 E0.02903
G1 X121.823 Y84.012 E0.02903
G1 X122.193 Y84.594 E0.02857
G1 X172.520 Y156.468 E3.63912
G1 X172.624 Y156.647 E0.00861
G1 X172.690 Y156.823 E0.00777
G1 X172.725 Y157.006 E0.00777
G1 X172.730 Y157.194 E0.00777
G1 X172.703 Y157.379 E0.00777
G1 X172.645 Y157.557 E0.00777
G1 X172.559 Y157.723 E0.00777
G1 X172.446 Y157.872 E0.00777
G1 X172.310 Y158.001 E0.00777
G1 X172.154 Y158.105 E0.00777
G1 X171.983 Y158.181 E0.00777
G1 X171.801 Y158.227 E0.00777
G1 X171.595 Y158.245 E0.00861
G1 X171.024 Y158.245 E0.02368
G1 X170.826 Y158.229 E0.00821
G1 X170.653 Y158.187 E0.00741
G1 X170.489 Y158.117 E0.00741
G1 X170.337 Y158.022 E0.00741
G1 X170.203 Y157.904 E0.00741
G1 X170.077 Y157.752 E0.00821
G1 X126.076 Y94.913 E3.18166
G1 X125.641 Y94.348 E0.02956
G1 X125.148 Y93.818 E0.03002
G1 X124.609 Y93.336 E0.03001
G1 X124.145 Y92.989 E0.02404
G1 X123.411 Y92.529 E0.03593
G1 X122.759 Y92.210 E0.03010
G1 X122.082 Y91.953 E0.03002
G1 X121.385 Y91.760 E0.03002
G1 X120.672 Y91.631 E0.03002
G1 X119.952 Y91.568 E0.02997
G1 X119.372 Y91.566 E0.02406
G1 X118.510 Y91.642 E0.03590
G1 X117.939 Y91.745 E0.02406
G1 X117.241 Y91.931 E0.02997
G1 X116.560 Y92.182 E0.03009
G1 X115.782 Y92.565 E0.03594
G1 X115.286 Y92.864 E0.02405
G1 X114.701 Y93.290 E0.02999
G1 X114.156 Y93.769 E0.03011
G1 X113.569 Y94.406 E0.03592
G1 X113.212 Y94.863 E0.02404
G1 X112.819 Y95.470 E0.03001
G1 X112.489 Y96.102 E0.02956
G1 X83.820 Y157.581 E2.81348
M73 P1 R114
M73 Q1 S115
G1 X83.721 Y157.755 E0.00831
G1 X83.607 Y157.896 E0.00750
G1 X83.473 Y158.017 E0.00750
G1 X83.320 Y158.114 E0.00750
G1 X83.051 Y158.211 E0.01186
G1 X82.847 Y158.077 F10800.000
;WIPE_START
G1 F8640.000
G1 X82.779 Y158.245 E-0.06343
G1 X80.585 Y158.245 E-0.50657
;WIPE_END
G1 E-0.03000 F2100.000
G1 Z1.200 F10800.000
G1 X78.194 Y156.486
G1 Z0.200
G1 E0.60000 F2100.000
;TYPE:Solid infill
;WIDTH:0.563619
G1 F1200.000
G1 X79.043 Y157.336 E0.04994
G1 X79.780 Y157.336 E0.03061
G1 X78.604 Y156.160 E0.06912
G1 X78.838 Y155.658 E0.02303
G1 X80.516 Y157.336 E0.09863
G1 X81.253 Y157.336 E0.03061
G1 X79.072 Y155.155 E0.12815
G1 X79.306 Y154.653 E0.02303
G1 X81.989 Y157.336 E0.15767
G1 X82.725 Y157.336 E0.03061
G1 X79.541 Y154.151 E0.18719
G1 X79.775 Y153.649 E0.02303
G1 X83.092 Y156.966 E0.19497
G1 X83.326 Y156.464 E0.02303
G1 X80.009 Y153.147 E0.19498
G1 X80.243 Y152.644 E0.02303
G1 X83.560 Y155.961 E0.19498
G1 X83.795 Y155.459 E0.02303
G1 X80.477 Y152.142 E0.19498
G1 X80.712 Y151.640 E0.02303
G1 X84.029 Y154.957 E0.19499
G1 X84.263 Y154.455 E0.02303
G1 X80.946 Y151.138 E0.19499
G1 X81.180 Y150.636 E0.02303
G1 X84.497 Y153.953 E0.19500
G1 X84.731 Y153.451 E0.02303
G1 X81.414 Y150.133 E0.19500
G1 X81.648 Y149.631 E0.02303
G1 X84.966 Y152.949 E0.19500
G1 X85.200 Y152.447 E0.02303
G1 X81.882 Y149.129 E0.19501
G1 X82.117 Y148.627 E0.02303
G1 X85.434 Y151.944 E0.19501
G1 X85.668 Y151.442 E0.02303
G1 X82.351 Y148.125 E0.19502
G1 X82.585 Y147.622 E0.02303
G1 X85.903 Y150.940 E0.19502
G1 X86.137 Y150.438 E0.02303
G1 X82.819 Y147.120 E0.19502
G1 X83.053 Y146.618 E0.02303
G1 X86.371 Y149.936 E0.19503
G1 X86.605 Y149.434 E0.02303
G1 X83.288 Y146.116 E0.19503
G1 X83.522 Y145.614 E0.02303
G1 X86.840 Y148.932 E0.19504
G1 X87.074 Y148.429 E0.02303
G1 X83.756 Y145.111 E0.19504
G1 X83.990 Y144.609 E0.02303
G1 X87.308 Y147.927 E0.19504
G1 X87.542 Y147.425 E0.02303
G1 X84.224 Y144.107 E0.19505
G1 X84.458 Y143.605 E0.02303
G1 X87.777 Y146.923 E0.19505
G1 X88.011 Y146.421 E0.02303
G1 X84.693 Y143.103 E0.19506
G1 X84.927 Y142.600 E0.02303
G1 X88.245 Y145.919 E0.19506
G1 X88.479 Y145.417 E0.02303
G1 X85.161 Y142.098 E0.19506
G1 X85.395 Y141.596 E0.02303
G1 X88.714 Y144.915 E0.19507
G1 X88.948 Y144.412 E0.02303
G1 X85.629 Y141.094 E0.19507
G1 X85.864 Y140.592 E0.02303
G1 X89.182 Y143.910 E0.19508
G1 X89.416 Y143.408 E0.02303
G1 X86.098 Y140.089 E0.19508
G1 X86.332 Y139.587 E0.02303
G1 X89.651 Y142.906 E0.19508
G1 X89.885 Y142.404 E0.02303
G1 X86.566 Y139.085 E0.19509
G1 X86.800 Y138.583 E0.02303
G1 X90.119 Y141.902 E0.19509
G1 X90.353 Y141.400 E0.02303
G1 X87.034 Y138.081 E0.19510
G1 X87.269 Y137.578 E0.02303
G1 X90.588 Y140.897 E0.19510
G1 X90.822 Y140.395 E0.02303
G1 X87.503 Y137.076 E0.19510
G1 X87.737 Y136.574 E0.02303
G1 X91.056 Y139.893 E0.19511
G1 X91.290 Y139.391 E0.02303
G1 X87.971 Y136.072 E0.19511
G1 X88.205 Y135.570 E0.02303
G1 X91.525 Y138.889 E0.19512
G1 X91.759 Y138.387 E0.02303
G1 X88.439 Y135.067 E0.19512
G1 X88.674 Y134.565 E0.02303
G1 X91.993 Y137.885 E0.19512
G1 X92.227 Y137.383 E0.02303
G1 X88.908 Y134.063 E0.19513
G1 X89.142 Y133.561 E0.02303
G1 X92.462 Y136.880 E0.19513
G1 X92.696 Y136.378 E0.02303
G1 X89.376 Y133.059 E0.19514
G1 X89.610 Y132.556 E0.02303
G1 X92.930 Y135.876 E0.19514
G1 X93.164 Y135.374 E0.02303
G1 X89.845 Y132.054 E0.19514
G1 X90.079 Y131.552 E0.02303
G1 X93.399 Y134.872 E0.19515
G1 X93.633 Y134.370 E0.02303
G1 X90.313 Y131.050 E0.19515
G1 X90.547 Y130.548 E0.02303
G1 X93.867 Y133.868 E0.19516
G1 X94.101 Y133.365 E0.02303
G1 X90.781 Y130.045 E0.19516
G1 X91.015 Y129.543 E0.02303
G1 X94.336 Y132.863 E0.19516
G1 X94.570 Y132.361 E0.02303
G1 X91.250 Y129.041 E0.19517
G1 X91.484 Y128.539 E0.02303
G1 X94.804 Y131.859 E0.19517
G1 X95.038 Y131.357 E0.02303
G1 X91.718 Y128.037 E0.19518
G1 X91.952 Y127.534 E0.02303
G1 X95.273 Y130.855 E0.19518
G1 X95.507 Y130.353 E0.02303
G1 X92.186 Y127.032 E0.19518
G1 X92.421 Y126.530 E0.02303
G1 X95.741 Y129.851 E0.19519
G1 X95.975 Y129.348 E0.02303
G1 X92.655 Y126.028 E0.19519
G1 X92.889 Y125.526 E0.02303
G1 X96.210 Y128.846 E0.19520
G1 X96.444 Y128.344 E0.02303
G1 X93.123 Y125.023 E0.19520
G1 X93.357 Y124.521 E0.02303
G1 X96.678 Y127.842 E0.19520
G1 X96.912 Y127.340 E0.02303
G1 X93.591 Y124.019 E0.19521
M73 P1 R113
G1 X93.826 Y123.517 E0.02303
G1 X97.147 Y126.838 E0.19521
G1 X97.381 Y126.336 E0.02303
G1 X94.060 Y123.015 E0.19522
G1 X94.294 Y122.512 E0.02303
G1 X97.615 Y125.834 E0.19522
G1 X97.849 Y125.331 E0.02303
G1 X94.528 Y122.010 E0.19522
G1 X94.762 Y121.508 E0.02303
G1 X98.084 Y124.829 E0.19523
G1 X98.318 Y124.327 E0.02303
G1 X94.997 Y121.006 E0.19523
G1 X95.231 Y120.504 E0.02303
G1 X98.552 Y123.825 E0.19524
G1 X98.786 Y123.323 E0.02303
G1 X95.465 Y120.001 E0.19524
G1 X95.699 Y119.499 E0.02303
G1 X99.021 Y122.821 E0.19524
